X:76
T:Polska efter Spel Jonte
T:(SvL Hälsingland 76)
R:Polska
O:Gnarp, Hälsingland
S:Spel Jonte
S:Pelle Schenell
B:Svenska Låtar Hälsingland
M:3/4
L:1/16
K:D
vA2(BA) (GF)ED [EA,]4|A2d2 (cA)Bc [dF]4|(gf)ga b2g2 f2e2|(dc)Bc d2A2 (GF)ED|
A2(BA) (GF)ED [EA,]4|A2d2 (cA)Bc [dF]4|(gf)ga b2g2 f2e2|(dc)Bc [dF]4 z4:|
|:a3f f3d d3A|A3F G2B2 A4|(GB)(GB) (FA)(FA) (GB)(GB)|(FA)(FA) (GB)(GB) A4|
(EFED) E2a2 g2e2&A,4 A,2|(dc)(Bc) [dF]4 z4:|

